Sources/Octicons.swift/Resources/Media.xcassets/beaker-16.imageset/beaker-16.svg

<svg xmlns="http://www.w3.org/2000/svg" viewBox="0 0 16 16" width="16" height="16">  <path fill-rule="evenodd" clip-rule="evenodd" d="M5.00002 5.7816V2.5H4.75C4.33579 2.5 4 2.16421 4 1.75C4 1.33579 4.33579 1 4.75 1H5.75002H10.25H11.25C11.6642 1 12 1.33579 12 1.75C12 2.16421 11.6642 2.5 11.25 2.5H11V5.7816L14.6658 11.542C15.6189 13.0399 14.543 15 12.7675 15H3.23253C1.45708 15 0.381097 13.0399 1.33429 11.542L5.00002 5.7816ZM9.50002 2.5H6.50002V6C6.50002 6.14264 6.45935 6.28232 6.38277 6.40266L4.72991 9H11.2701L9.61728 6.40266C9.5407 6.28232 9.50002 6.14264 9.50002 6V2.5ZM2.59979 12.3473L3.77537 10.5H12.2247L13.4003 12.3473C13.718 12.8466 13.3593 13.5 12.7675 13.5H3.23253C2.64071 13.5 2.28205 12.8466 2.59979 12.3473Z"></path></svg>

<svg xmlns="http://www.w3.org/2000/svg" width="16" height="16" viewBox="0 0 16 16"><path d="M5 5.782V2.5h-.25a.75.75 0 0 1 0-1.5h6.5a.75.75 0 0 1 0 1.5H11v3.282l3.666 5.76C15.619 13.04 14.543 15 12.767 15H3.233c-1.776 0-2.852-1.96-1.899-3.458Zm-2.4 6.565a.75.75 0 0 0 .633 1.153h9.534a.75.75 0 0 0 .633-1.153L12.225 10.5h-8.45ZM9.5 2.5h-3V6c0 .143-.04.283-.117.403L4.73 9h6.54L9.617 6.403A.746.746 0 0 1 9.5 6Z"/></svg>
